X: 14
T:St Hugh's Jig
% Nottingham Music Database
S:Trevor
M:4/4
L:1/4
K:D
"D"dd "A"ce|"G"BB "A"A3/2A/2|"Em"BB "A7"cA|"D"d2 -"A7"dA|"D"dd/2d/2 "A"ce|
"G"dc/2B/2 "A"A3/2A/2|"Em"BB "A7"cA|"D"d2 "A7"A2|"D"dA "G"BA/2G/2|\
"D"F3/2G/2 AG/2F/2|
"Em"EF "A7"GA|"D"F3/2E/2 D"c#"E|"Bm"F3/2E/2 D"c#"E|"D"F3/2E/2 "f#"DE|\
"G"F/2G/2A "A7"E3/2D/2|"D"D3||


